!!!!SEGMENT: pl-wn--sd-xvi-qu-273--144_gomolka-mikolaj--melodiae-na-psalterz-polski-cxliii-wysluchaj-wieczny-boze-prosby-moje.krn
!!!cenid: 15xx:348
!!!COM: Gomółka, Mikołaj
!!!COM-rismID:
!!!CDT: ~1535->1591/04/30
!!!CNT: Polish
!!!GTL: Melodiae na psalterz polski
!!!OTL: CXLIII. Wysłuchaj, wieczny Boże, prośby moje
!!!ONB:
!!!PDT: 1580
!!!AGN: Sacred
!!!SMS-siglum: PL-Wn
!!!SMS-shelfmark: SD XVI.Qu.273
!!!SMS-shelfwork: 144 G
!!!NIFC-rismSourceID:
!!!NIFC-islandoraID:
!!!URL-pdf-islandora:
!!!URL-scan: https://polona.pl/item/melodiae-na-psalterz-polski,Nzk3MTM4ODQ/12/#item @EN{Scan on Polona} @PL{Skany w portalu Polona}
!!!ONB-nifc: Melodiae na psalterz polski
!!!AIN: 1 alto 1 bass 1 soprn 1 tenor
!!!key: d:dor
**kern	**text	**kern	**text	**kern	**text	**kern	**text
*part4	*part4	*part3	*part3	*part2	*part2	*part1	*part1
*staff4	*staff4	*staff3	*staff3	*staff2	*staff2	*staff1	*staff1
*I"BASSVS.	*	*I"TENOR.	*	*I"ALTVS.	*	*I"CANTVS.	*
*Ibass	*	*Itenor	*	*Ialto	*	*Isoprn	*
*ICvox	*	*ICvox	*	*ICvox	*	*ICvox	*
*clefF4	*	*clefC3	*	*clefC3	*	*clefC1	*
*k[]	*	*k[]	*	*k[]	*	*k[]	*
*d:dor	*	*d:dor	*	*d:dor	*	*d:dor	*
*M2/1	*	*M2/1	*	*M2/1	*	*M2/1	*
*met(C|)	*	*met(C|)	*	*met(C|)	*	*met(C|)	*
*MM240	*	*MM240	*	*MM240	*	*MM240	*
*all\center	*	*all\center	*	*all\center	*	*all\center	*
*all/center	*	*all/center	*	*all/center	*	*all/center	*
=1-	=1-	=1-	=1-	=1-	=1-	=1-	=1-
1D\	WY-	1d\	WY-	1f\	WY-	1a\	WY-
2F\	-ſłu-	2c/	-ſłu-	2.f\	-ſłu-	2a\	-ſłu-
2.F\	-chay	2f\	-chay	.	.	2a\	-chay
.	.	.	.	4g\	-chay	.	.
=2-	=2-	=2-	=2-	=2-	=2-	=2-	=2-
.	.	2f\	wiecz-	2a\	wiecz-	2cc\	wiecz-
4G\	.	.	.	.	.	.	.
2A\	wiecz-	2e\	-ny	1a\	-ny	2cc\	-ny
2E\	-ny	2.e\	bo-	.	.	1b\	bo-
2E\	bo-	.	.	2g#\i	bo-	.	.
.	.	4d\	.	.	.	.	.
=3-	=3-	=3-	=3-	=3-	=3-	=3-	=3-
!	!	!LO:TX:b:t=P:problem=# below	!	!	!	!	!
2A\	-że/	2c#X/	-że/	2a\	-że/	2a\	-że/
1D\	pros-	4d\	pros-	1f\	pros-	1dd\	pros-
.	.	4cn\i	.	.	.	.	.
.	.	4B/	.	.	.	.	.
.	.	4A/	.	.	.	.	.
2AA/	-by	1A/	-by	2e\	-by	2cc\	-by
=4-	=4-	=4-	=4-	=4-	=4-	=4-	=4-
2.E\	mo-	.	.	1e\	mo-	1b\	mo-
!	!	!LO:TX:a:t=P:problem=# above	!	!	!	!	!
.	.	2G#X/	mo-	.	.	.	.
4D/	.	.	.	.	.	.	.
!LO:TX:b:t=P:problem=# below	!	!	!	!	!	!	!
2C#X/	-ie/	2A/	-ie/	2.e\	-ie/	2a\	-ie/
2D/	A	2A/	A	.	.	2a\	A
.	.	.	.	4d\	A	.	.
=5-	=5-	=5-	=5-	=5-	=5-	=5-	=5-
2AA/	ná-	2A/	ná-	4c\	ná-	2cc\	ná-
.	.	.	.	4d\	.	.	.
2C/	-kłoń	4G/	-kłoń	4e\	-kłoń	2cc\	-kłoń
.	.	4A/	.	4f\	.	.	.
4GG/	ku	4B/	ku	1g\	ku	1b\	ku
4AA/	.	4c/	.	.	.	.	.
4BB/	mnie	2d\	mnie	.	.	.	.
4C/	.	.	.	.	.	.	.
*custos:D	*	*custos:d	*	*custos:f	*	*custos:a	*
=6-	=6-	=6-	=6-	=6-	=6-	=6-	=6-
!LO:PB:g=original	!	!LO:PB:g=original	!	!	!	!	!
!	!	!	!	!LO:PB:g=original	!	!LO:PB:g=original	!
1.D\	świę-	1d\	świę-	2.f\	mnie	2.a\	mnie
.	.	.	.	4e\	.	4g/	.
.	.	2d\	-té	2d\	świę-	2f/	świę-
2E\	-té	4c\	.	2g\	-té	2e/	-té
.	.	4B/	.	.	.	.	.
=7-	=7-	=7-	=7-	=7-	=7-	=7-	=7-
2F\	u-	2A/	u-	2f\	u-	2a\	u-
2B-\i	-ßy	1d\	-ßy	4e\	-ßy	2g\	-ßy
.	.	.	.	4d\	.	.	.
1A\	ſwo-	.	.	4e\	.	2.a\	ſwo-
.	.	.	.	4f\	.	.	.
!	!	!LO:TX:b:t=P:problem=# below	!	!	!	!	!
.	.	2c#X/	ſwo-	2e\	ſwo-	.	.
.	.	.	.	.	.	4g/	.
=8-	=8-	=8-	=8-	=8-	=8-	=8-	=8-
!	!	!	!	!	!	!LO:TX:b:t=P:problem=# below	!
1D\	-ie:	1d\	-ie:	1d\	-ie:	1f#X/	-ie:
1A\	Wed-	1c#\i	Wed-	1e\	Wed-	1a\	Wed-
=9-	=9-	=9-	=9-	=9-	=9-	=9-	=9-
!	!	!	!	!LO:TX:b:t=P:problem=# below	!	!	!
2AA/	-ług	2A/	-ług	2c#X/	-ług	2e/	-ług
2AA/	ſwéy	2A/	ſwéy	2c#/	ſwéy	2e/	ſwéy
!	!	!	!	!	!	!LO:TX:b:t=P:problem=# below	!
1D\	práw-	1A/	práw-	1d\	práw-	1f#X/	práw-
=10-	=10-	=10-	=10-	=10-	=10-	=10-	=10-
2G\	-dy/	2B/	-dy/	2d\	-dy/	2g/	-dy/
2E\	wed-	2G/	wed-	2g\	wed-	1cc\	wed-
2.F\	-ług	2.A/	-ług	1f\	-ług	.	.
.	.	.	.	.	.	2cc\	-ług
4G\	.	4B/	.	.	.	.	.
=11-	=11-	=11-	=11-	=11-	=11-	=11-	=11-
2A\	ſwéy	4c\	ſwéy	2e\	ſwéy	2a\	ſwéy
.	.	4d\	.	.	.	.	.
1A\	li-	2e\	li-	2c/	li-	2cc\	li-
.	.	1d\	-to-	2.d\	-to-	1b\	-to-
2G#\i	-to-	.	.	.	.	.	.
.	.	.	.	4e\	.	.	.
*custos:A	*	*custos:c	*	*custos:f	*	*custos:a	*
=12-	=12-	=12-	=12-	=12-	=12-	=12-	=12-
!LO:LB:g=original	!	!LO:LB:g=original	!	!LO:LB:g=original	!	!LO:LB:g=original	!
2A\	-śći/	2c/	-śći/	2f\	-śći/	2a\	-śći/
1A\	Rácz	2c/	Rácz	2.e\	Rácz	2e/	Rácz
.	.	2A/	mię	.	.	2c/	mię
.	.	.	.	4f\	mię	.	.
2G\	mię	2B/	rá-	2g\	rá-	2d/	rá-
=13-	=13-	=13-	=13-	=13-	=13-	=13-	=13-
2F\	rá-	2c/	-to-	1a\	-to-	1f/	-to-
2D/	-to-	2d\	.	.	.	.	.
2A\	-wáć	2c/	-wáć	2a\	-wáć	2e/	-wáć
1E\	w_mo-	2.G/	w_mo-	1g\	w_mo-	1b\	w_mo-
=14-	=14-	=14-	=14-	=14-	=14-	=14-	=14-
.	.	4A/	.	.	.	.	.
!	!	!	!	!	!	!LO:TX:b:t=P:problem=# below	!
2E\	-iéy	2B/	-iéy	2e\	-iéy	2g#X/	-iéy
2.F\	do-	2A/	do-	2c/	do-	2a\	do-
.	.	2A/	-leg-	2c/	-leg-	2a\	-leg-
4E\	.	.	.	.	.	.	.
=15-	=15-	=15-	=15-	=15-	=15-	=15-	=15-
4D/	-leg-	1A/	-łoś-	1d\	-łoś-	1f/	-łoś-
!LO:TX:b:t=P:problem=# below	!	!	!	!	!	!	!
4C#X/	.	.	.	.	.	.	.
2D/	-łoś-	.	.	.	.	.	.
!	!	!	!	!LO:TX:a:t=P:problem=# above	!	!	!
1AA/l	-ći.	1A/l	-ći.	1c#X\l	-ći.	1e/l	-ći.
==	==	==	==	==	==	==	==
*-	*-	*-	*-	*-	*-	*-	*-
!!!system-decoration: [(s1,s2,s3,s4)]
!!!RDF**kern: i = editorial accidental
!!!RDF**kern: l = terminal long
!!!EED: Jacek Iwaszko
!!!EEV: 2021-11-29
!!!ENC: Kamil Watkowski
!!!END: 2021-12-31
